dist/img/s-list-icons/s_list_icon_1.svg

<svg width="50" height="50" viewBox="0 0 50 50" fill="none" xmlns="http://www.w3.org/2000/svg">
<path d="M22.3998 35.1257V39.355C22.3998 42.9383 19.0664 45.8341 14.9623 45.8341C10.8581 45.8341 7.50391 42.9383 7.50391 39.355V35.1257C7.50391 38.7091 10.8373 41.2507 14.9623 41.2507C19.0664 41.2507 22.3998 38.6882 22.3998 35.1257Z" stroke="#FC00FF" stroke-width="2" stroke-linecap="round" stroke-linejoin="round"/>
<path d="M22.3971 29.3958C22.3971 30.4374 22.1054 31.3958 21.6054 32.2291C20.3762 34.2499 17.8554 35.5208 14.9387 35.5208C12.022 35.5208 9.50118 34.2291 8.27202 32.2291C7.77202 31.3958 7.48047 30.4374 7.48047 29.3958C7.48047 27.6041 8.31376 25.9999 9.64709 24.8333C11.0013 23.6458 12.8554 22.9375 14.9179 22.9375C16.9804 22.9375 18.8346 23.6666 20.1888 24.8333C21.5638 25.9791 22.3971 27.6041 22.3971 29.3958Z" stroke="#FC00FF" stroke-width="2" stroke-linecap="round" stroke-linejoin="round"/>
<path d="M22.3998 29.3959V35.1251C22.3998 38.7084 19.0664 41.2501 14.9623 41.2501C10.8581 41.2501 7.50391 38.6876 7.50391 35.1251V29.3959C7.50391 25.8126 10.8373 22.9167 14.9623 22.9167C17.0248 22.9167 18.879 23.6459 20.2332 24.8125C21.5665 25.9792 22.3998 27.6042 22.3998 29.3959Z" stroke="#FC00FF" stroke-width="1.5" stroke-linecap="round" stroke-linejoin="round"/>
<path d="M45.8341 22.8542V27.1459C45.8341 28.2918 44.9174 29.2292 43.7508 29.2709H39.6674C37.4174 29.2709 35.3549 27.625 35.1674 25.375C35.0424 24.0625 35.5424 22.8334 36.4174 21.9792C37.1882 21.1875 38.2507 20.7292 39.4174 20.7292H43.7508C44.9174 20.7709 45.8341 21.7083 45.8341 22.8542Z" stroke="#FC00FF" stroke-width="2" stroke-linecap="round" stroke-linejoin="round"/>
<path d="M4.16797 21.8751V17.7084C4.16797 12.0417 7.58464 8.08341 12.8971 7.41674C13.4388 7.33341 14.0013 7.29175 14.5846 7.29175H33.3346C33.8763 7.29175 34.3971 7.31256 34.8971 7.39589C40.2721 8.02089 43.7513 12.0001 43.7513 17.7084V20.7293H39.4179C38.2513 20.7293 37.1888 21.1876 36.4179 21.9792C35.5429 22.8334 35.043 24.0626 35.168 25.3751C35.3555 27.6251 37.4179 29.2709 39.6679 29.2709H43.7513V32.2917C43.7513 38.5417 39.5846 42.7084 33.3346 42.7084H28.1263" stroke="#FC00FF" stroke-width="2" stroke-linecap="round" stroke-linejoin="round"/>
</svg>

<svg width="50" height="50" viewBox="0 0 50 50" fill="none" xmlns="http://www.w3.org/2000/svg"><path d="M22.4 35.126v4.229c0 3.583-3.334 6.48-7.438 6.48-4.104 0-7.458-2.897-7.458-6.48v-4.23c0 3.584 3.333 6.126 7.458 6.126 4.104 0 7.438-2.563 7.438-6.125z" stroke="#FC00FF" stroke-width="2" stroke-linecap="round" stroke-linejoin="round"/><path d="M22.397 29.396c0 1.041-.292 2-.792 2.833-1.229 2.02-3.75 3.292-6.666 3.292-2.917 0-5.438-1.292-6.667-3.292a5.465 5.465 0 01-.792-2.833c0-1.792.834-3.396 2.167-4.563 1.354-1.187 3.208-1.895 5.27-1.895 2.063 0 3.918.729 5.272 1.895 1.375 1.146 2.208 2.771 2.208 4.563z" stroke="#FC00FF" stroke-width="2" stroke-linecap="round" stroke-linejoin="round"/><path d="M22.4 29.396v5.73c0 3.582-3.334 6.124-7.438 6.124-4.104 0-7.458-2.562-7.458-6.125v-5.73c0-3.582 3.333-6.478 7.458-6.478 2.063 0 3.917.729 5.271 1.895 1.334 1.167 2.167 2.792 2.167 4.584z" stroke="#FC00FF" stroke-width="1.5" stroke-linecap="round" stroke-linejoin="round"/><path d="M45.834 22.854v4.292c0 1.146-.917 2.083-2.083 2.125h-4.084c-2.25 0-4.312-1.646-4.5-3.896a4.184 4.184 0 011.25-3.396 4.152 4.152 0 013-1.25h4.334c1.166.042 2.083.98 2.083 2.125z" stroke="#FC00FF" stroke-width="2" stroke-linecap="round" stroke-linejoin="round"/><path d="M4.168 21.875v-4.167c0-5.666 3.417-9.625 8.73-10.291a11.089 11.089 0 011.687-.125h18.75c.541 0 1.062.02 1.562.104 5.375.625 8.854 4.604 8.854 10.312v3.021h-4.333c-1.167 0-2.23.459-3 1.25a4.184 4.184 0 00-1.25 3.396c.188 2.25 2.25 3.896 4.5 3.896h4.083v3.02c0 6.25-4.166 10.417-10.416 10.417h-5.209" stroke="#FC00FF" stroke-width="2" stroke-linecap="round" stroke-linejoin="round"/></svg>
